frontend/src/assets/unchecked.svg

<svg width="32" height="32" viewBox="0 0 32 32" fill="none" xmlns="http://www.w3.org/2000/svg">
<path d="M14.1333 21.6L23.5333 12.2L21.6667 10.3333L14.1333 17.8667L10.3333 14.0667L8.46667 15.9333L14.1333 21.6ZM6.66667 28C5.93333 28 5.30556 27.7389 4.78333 27.2167C4.26111 26.6944 4 26.0667 4 25.3333V6.66667C4 5.93333 4.26111 5.30556 4.78333 4.78333C5.30556 4.26111 5.93333 4 6.66667 4H25.3333C26.0667 4 26.6944 4.26111 27.2167 4.78333C27.7389 5.30556 28 5.93333 28 6.66667V25.3333C28 26.0667 27.7389 26.6944 27.2167 27.2167C26.6944 27.7389 26.0667 28 25.3333 28H6.66667Z" fill="#E6E0E9"/>
</svg>

<svg xmlns="http://www.w3.org/2000/svg" width="32" height="32" fill="none"><path fill="#E6E0E9" d="m14.133 21.6 9.4-9.4-1.866-1.867-7.534 7.534-3.8-3.8-1.866 1.866zM6.667 28a2.57 2.57 0 0 1-1.884-.783A2.57 2.57 0 0 1 4 25.333V6.667q0-1.1.783-1.884A2.57 2.57 0 0 1 6.667 4h18.666q1.1 0 1.884.783.783.784.783 1.884v18.666q0 1.1-.783 1.884a2.57 2.57 0 0 1-1.884.783z"/></svg>
